X:1
T:Title
%%score { ( 1 5 ) | ( 2 3 4 ) }
L:1/8
M:4/4
K:Ab
V:1 treble nm="Grand Piano"
V:5 treble 
V:2 bass 
V:3 bass 
V:4 bass 
V:1
 z4 z2[Q:1/4=100] [Ec]>[DB] | [CA]>[CG] [CA]>[CB] [CA]2 [CF]2 | [DG]2 [Ge]2 [Ge]2 E>F | %3
 G>_G =G>A [DGB]>[C_G=A] [D=GB]>[=D_G_c] | [Ec]6 [Ec]>[DB] | [CA]>[CG] [CA]>[CB] [CA]2 [CF]2 | %6
 [EG]2 [Ge]2 [Ge]4 | [F=d]>[Ac] [GB]>[FA] [EG]2 [=DF]2 | E6 z2 | z4 z2 d2 | c6 z2 | %11
 [=Ec]>[EB] [EG]>[GB] [FA]2 E>E | A8 | [FA]>[=EG] [FA]>[Ac] [GB]>[FA] [_EG]>[DF] | %14
 [CE]>[_C=D] [=CE]>[CA] c4 | [Ge]>[Ae] [Be]>[FGd] [EAc]2 [DEB]2 |[M:3/4] [CEA]6 |] %17
V:2
 z4 z2 [A,,A,]>[A,,A,] | [A,,E,]>[A,,E,] [A,,E,]>[A,,E,] [A,,E,]2 [A,,A,]2 | %2
 [E,B,]2 [E,D]2 [E,D]2 [E,G,]>[E,A,E] | [E,B,E]>[E,=A,E] [E,B,E]>[E,CE] E,>E, E,>E, | A,6 z2 | %5
 [A,,E,]>[A,,E,] [A,,E,]>[A,,E,] [A,,E,]2 [A,,A,]2 | [E,B,]2 [E,B,]2 [E,B,]4 | %7
 [B,,B,]>[B,,B,] [B,,B,]>[B,,B,] [B,,B,]2 [B,,A,]2 | [E,G,]6 z2 | %9
 [E,B,]>[E,B,] [E,B,]>[E,C] [E,D]2 [E,B,]>[E,B,] | [A,E]2 E,>C, A,,2 z2 | %11
 [C,G,]>[C,G,] [C,C]>[C,C] [C,C]2 [C,C]>[C,C] | [F,CF]2 [F,C]2 [E,C]4 | %13
 [D,D]>[D,D] [D,D]>[D,D] [D,D]>[D,D] [D,A,]>[D,A,] | [A,,A,]>[A,,A,] [A,,A,]>[A,,A,] [A,E]4 | %15
 [E,B,]>[E,C] [E,D]>E, E,2 E,2 |[M:3/4] A,,6 |] %17
V:3
 x8 | x8 | x8 | x8 | (3z F,E, z2 z4 | x8 | x8 | x8 | x8 | x8 | x8 | x8 | x8 | x8 | x8 | x8 | %16
[M:3/4] x6 |] %17
V:4
 x8 | x8 | x8 | x8 | z2 (3D,C,B,, A,,2 [A,,A,]>[A,,A,] | x8 | x8 | x8 | x8 | x8 | x8 | x8 | x8 | %13
 x8 | x8 | x8 |[M:3/4] x6 |] %17
V:5
 x8 | x8 | x8 | x8 | x8 | x8 | x8 | x8 | x8 | [Ge]>[Gd] [EG]>[EA] [GB]2 G>E | z2 [A,E]2 [A,E]2 z2 | %11
 z4 z2 G2 | z2 F2 _G4 | x8 | x8 | x8 |[M:3/4] x6 |] %17

